src/assets/outline/Polygon.svg

<svg width="24" height="24" viewBox="0 0 24 24"  xmlns="http://www.w3.org/2000/svg">
<path d="M7.50023 15.4502C7.37023 15.4502 7.24022 15.4202 7.12022 15.3502L2.62022 12.7502C2.39022 12.6202 2.24023 12.3702 2.24023 12.1002V6.90023C2.24023 6.63023 2.38022 6.38023 2.62022 6.25023L7.12022 3.65023C7.35022 3.52023 7.64022 3.52023 7.87022 3.65023L12.3702 6.25023C12.6002 6.38023 12.7502 6.63023 12.7502 6.90023V8.47023C12.7502 8.88023 12.4102 9.22023 12.0002 9.22023C11.5902 9.22023 11.2502 8.88023 11.2502 8.47023V7.33023L7.50023 5.16024L3.75023 7.33023V11.6602L7.50023 13.8302L11.6202 11.4502C11.9802 11.2402 12.4402 11.3702 12.6402 11.7202C12.8502 12.0802 12.7202 12.5402 12.3702 12.7402L7.87022 15.3402C7.76022 15.4102 7.63023 15.4502 7.50023 15.4502Z" />
<path d="M16.5002 20.6395C16.3702 20.6395 16.2402 20.6095 16.1202 20.5395L11.6202 17.9395C11.3902 17.8095 11.2402 17.5595 11.2402 17.2895V15.6395C11.2402 15.2295 11.5802 14.8895 11.9902 14.8895C12.4002 14.8895 12.7402 15.2295 12.7402 15.6395V16.8595L16.4902 19.0295L20.2402 16.8595V12.5295L16.4902 10.3595L12.3702 12.7395C12.0102 12.9495 11.5502 12.8195 11.3502 12.4695C11.1402 12.1095 11.2702 11.6495 11.6202 11.4495L16.1202 8.84945C16.3502 8.71945 16.6402 8.71945 16.8702 8.84945L21.3702 11.4495C21.6002 11.5795 21.7502 11.8295 21.7502 12.0995V17.2995C21.7502 17.5695 21.6102 17.8195 21.3702 17.9495L16.8702 20.5495C16.7602 20.6095 16.6302 20.6395 16.5002 20.6395Z" />
</svg>

<?xml version="1.0" encoding="UTF-8"?>
<svg width="24" height="24" viewBox="0 0 24 24" xmlns="http://www.w3.org/2000/svg">
 <path d="m7.5002 15.45c-0.13 0-0.26001-0.03-0.38001-0.1l-4.5-2.6c-0.23-0.13-0.37999-0.38-0.37999-0.65v-5.2c0-0.27 0.13999-0.52 0.37999-0.65l4.5-2.6c0.23-0.13 0.52-0.13 0.75 0l4.5 2.6c0.23 0.13 0.38 0.38 0.38 0.65v1.57c0 0.41-0.34 0.75-0.75 0.75s-0.75-0.34-0.75-0.75v-1.14l-3.75-2.17-3.75 2.17v4.33l3.75 2.17 4.12-2.38c0.36-0.21 0.82-0.08 1.02 0.27 0.21 0.36 0.08 0.82-0.27 1.02l-4.5 2.6c-0.11 0.07-0.23999 0.11-0.36999 0.11z"/>
 <path d="m16.5 20.64c-0.13 0-0.26-0.03-0.38-0.1l-4.5-2.6c-0.23-0.13-0.38-0.38-0.38-0.65v-1.65c0-0.41 0.34-0.75 0.75-0.75s0.75 0.34 0.75 0.75v1.22l3.75 2.17 3.75-2.17v-4.33l-3.75-2.17-4.12 2.38c-0.36 0.21-0.82 0.08-1.02-0.27-0.21-0.36-0.08-0.82 0.27-1.02l4.5-2.6c0.23-0.13 0.52-0.13 0.75 0l4.5 2.6c0.23 0.13 0.38 0.38 0.38 0.65v5.2c0 0.27-0.14 0.52-0.38 0.65l-4.5 2.6c-0.11 0.06-0.24 0.09-0.37 0.09z"/>
</svg>
